X: 31052
T: COTILLION No. 14. COLUMBIAN SETT tune 5
C:
%R: jig
B: Elias Howe "The Musician's Companion" Part 3 1844 p.105 #2
S: http://imslp.org/wiki/The_Musician's_Companion_(Howe,_Elias)
Z: 2015 John Chambers <jc:trillian.mit.edu>
M: 6/8
L: 1/8
K: F
% - - - - - - - - - - - - - - - - - - - - - - - - - - - - -
C |\
FEF c2c | c=Bc f2f | g2g gag | c'af efd |\
c2c cde | fga b2a | gec' cde | gff f2 H|]
z |\
c'c'/c'/c' c'c'/c'/c' | c'eg c'3 | f2e d2c | =B/c/d/c/B/A/ G2z |\
cc/c/c AA/A/A | dd/d/d =B2z | gg/g/g GAB | dcc "^D.C."c2 |]
c |\
c2A A2F | F3 CDE | FCF AFA | cAc fca |\
bag fed | cBA GAB | cBA bag | fAc "^D.C."f2 |]
% - - - - - - - - - - Dance description - - - - - - - - - -
%%begintext align
%% All forward and back,
%% swing partners,
%% balance to corners, &c.
%%endtext
% - - - - - - - - - - - - - - - - - - - - - - - - - - - - -
%%sep 1 1 300
